svg/cfg.svg

<?xml version="1.0" encoding="UTF-8"?>
<svg xmlns="http://www.w3.org/2000/svg" xmlns:xlink="http://www.w3.org/1999/xlink" width="32" height="32" viewBox="0 0 32 32">
<path fill-rule="nonzero" fill="rgb(72.941176%, 72.941176%, 72.941176%)" fill-opacity="1" stroke-width="0.8" stroke-linecap="butt" stroke-linejoin="miter" stroke="rgb(72.941176%, 72.941176%, 72.941176%)" stroke-opacity="1" stroke-miterlimit="10" d="M 6.113281 20.640625 C 4.574219 21.054688 3.425781 22.433594 3.425781 24.128906 C 3.425781 25.792969 4.574219 27.199219 6.113281 27.617188 L 6.113281 30.398438 L 7.902344 30.398438 L 7.902344 27.585938 C 9.441406 27.167969 10.59375 25.792969 10.59375 24.097656 C 10.59375 22.433594 9.441406 21.023438 7.902344 20.609375 L 7.902344 1.601562 L 6.113281 1.601562 Z M 8.800781 24.097656 C 8.800781 25.089844 8 25.886719 7.007812 25.886719 C 6.285156 25.886719 5.632812 25.449219 5.351562 24.78125 C 5.074219 24.113281 5.226562 23.339844 5.738281 22.828125 C 6.074219 22.492188 6.53125 22.304688 7.007812 22.304688 C 7.484375 22.304688 7.941406 22.492188 8.277344 22.828125 C 8.613281 23.164062 8.800781 23.621094 8.800781 24.097656 Z M 12.414062 7.902344 C 12.414062 9.566406 13.566406 10.976562 15.105469 11.390625 L 15.105469 30.398438 L 16.894531 30.398438 L 16.894531 11.359375 C 18.433594 10.945312 19.585938 9.566406 19.585938 7.871094 C 19.585938 6.175781 18.433594 4.800781 16.894531 4.382812 L 16.894531 1.601562 L 15.105469 1.601562 L 15.105469 4.414062 C 13.519531 4.828125 12.414062 6.261719 12.414062 7.902344 Z M 17.792969 7.902344 C 17.792969 8.378906 17.605469 8.835938 17.269531 9.171875 C 16.933594 9.507812 16.476562 9.695312 16 9.695312 C 15.304688 9.695312 14.675781 9.289062 14.382812 8.660156 C 14.085938 8.03125 14.183594 7.289062 14.628906 6.753906 C 15.074219 6.222656 15.789062 5.996094 16.460938 6.171875 C 17.246094 6.378906 17.792969 7.089844 17.792969 7.902344 Z M 21.40625 18.6875 C 21.40625 20.351562 22.558594 21.761719 24.097656 22.175781 L 24.097656 30.398438 L 25.886719 30.398438 L 25.886719 22.175781 C 27.425781 21.761719 28.574219 20.382812 28.574219 18.6875 C 28.574219 16.992188 27.425781 15.617188 25.886719 15.199219 L 25.886719 1.601562 L 24.097656 1.601562 L 24.097656 15.230469 C 22.515625 15.632812 21.410156 17.054688 21.40625 18.6875 Z M 26.816406 18.6875 C 26.816406 19.164062 26.628906 19.621094 26.292969 19.957031 C 25.957031 20.292969 25.5 20.480469 25.023438 20.480469 C 24.546875 20.480469 24.089844 20.292969 23.753906 19.957031 C 23.417969 19.621094 23.230469 19.164062 23.230469 18.6875 C 23.230469 18.210938 23.417969 17.753906 23.753906 17.417969 C 24.089844 17.082031 24.546875 16.894531 25.023438 16.894531 C 25.984375 16.894531 26.816406 17.695312 26.816406 18.6875 Z M 26.816406 18.6875 "/>
</svg>

<svg role="img" viewBox="0 0 32 32" xmlns="http://www.w3.org/2000/svg"><path d="M6.113 20.64c-1.539.415-2.687 1.794-2.687 3.489 0 1.664 1.148 3.07 2.687 3.488v2.781h1.79v-2.812c1.538-.418 2.69-1.793 2.69-3.488 0-1.664-1.152-3.075-2.69-3.489V1.602h-1.79Zm2.688 3.458c0 .992-.801 1.789-1.793 1.789a1.794 1.794 0 0 1-1.27-3.059 1.8 1.8 0 0 1 1.27-.523c.476 0 .933.187 1.27.523.335.336.523.793.523 1.27Zm3.613-16.196c0 1.664 1.152 3.075 2.691 3.489v19.007h1.79V11.36c1.539-.414 2.69-1.793 2.69-3.488s-1.151-3.07-2.69-3.488V1.602h-1.79v2.812a3.6 3.6 0 0 0-2.69 3.488Zm5.379 0c0 .477-.188.934-.523 1.27a1.8 1.8 0 0 1-1.27.523c-.477 0-.934-.187-1.27-.523a1.794 1.794 0 1 1 3.063-1.27Zm3.613 10.785c0 1.665 1.153 3.075 2.692 3.489v8.222h1.789v-8.222c1.539-.414 2.687-1.793 2.687-3.488s-1.148-3.07-2.687-3.489V1.602h-1.79V15.23a3.57 3.57 0 0 0-2.69 3.457Zm5.41 0c0 .477-.187.934-.523 1.27a1.8 1.8 0 0 1-1.27.523c-.476 0-.933-.187-1.27-.523a1.8 1.8 0 0 1-.523-1.27c0-.476.188-.933.524-1.269a1.8 1.8 0 0 1 1.27-.523c.96 0 1.792.8 1.792 1.793Zm0 0" fill="rgb(72.941178%, 72.941178%, 72.941178%)" stroke="rgb(72.941178%, 72.941178%, 72.941178%)" stroke-miterlimit="10" stroke-width=".8"/></svg>
